dhis-2/dhis-support/dhis-support-system/src/main/resources/SVGs/heart_cardiogram_outline.svg

<?xml version="1.0" encoding="UTF-8" standalone="no"?>
<!-- Created with Inkscape (http://www.inkscape.org/) -->

<svg
   xmlns:osb="http://www.openswatchbook.org/uri/2009/osb"
   xmlns:dc="http://purl.org/dc/elements/1.1/"
   xmlns:cc="http://creativecommons.org/ns#"
   xmlns:rdf="http://www.w3.org/1999/02/22-rdf-syntax-ns#"
   xmlns:svg="http://www.w3.org/2000/svg"
   xmlns="http://www.w3.org/2000/svg"
   xmlns:sodipodi="http://sodipodi.sourceforge.net/DTD/sodipodi-0.dtd"
   xmlns:inkscape="http://www.inkscape.org/namespaces/inkscape"
   width="48"
   height="48"
   viewBox="0 0 12.7 12.7"
   version="1.1"
   id="svg8"
   inkscape:version="0.92.2 (5c3e80d, 2017-08-06)"
   sodipodi:docname="heart_cardiogram_outline.svg">
  <title
     id="title4753">UIO-icon</title>
  <defs
     id="defs2">
    <clipPath
       id="clipPath847"
       clipPathUnits="userSpaceOnUse">
      <rect
         y="248.86708"
         x="68.720795"
         height="101.69591"
         width="101.58684"
         id="rect849"
         style="fill:#ff0000;fill-opacity:0.52314812;stroke:none;stroke-width:0.815732;stroke-linecap:round;stroke-linejoin:round;stroke-miterlimit:4;stroke-dasharray:none;stroke-opacity:1" />
    </clipPath>
    <linearGradient
       gradientTransform="matrix(0.00229968,0,0,0.00764365,-480.76794,1614.5601)"
       osb:paint="solid"
       id="linearGradient17002">
      <stop
         id="stop17004"
         offset="0"
         style="stop-color:#283593;stop-opacity:1;" />
    </linearGradient>
    <clipPath
       id="clipPath83799-06"
       clipPathUnits="userSpaceOnUse">
      <circle
         r="16.425676"
         cy="2526.7087"
         cx="1629.7842"
         id="circle83801-32"
         style="opacity:1;fill:#ffffff;fill-opacity:1;stroke:#cccccc;stroke-width:0.49900001;stroke-linecap:round;stroke-linejoin:round;stroke-miterlimit:4;stroke-dasharray:none;stroke-opacity:1" />
    </clipPath>
    <linearGradient
       gradientTransform="matrix(8.4815637e-7,0,0,8.4815637e-7,1622.9529,2135.1955)"
       osb:paint="solid"
       id="linearGradient17020">
      <stop
         id="stop17022"
         offset="0"
         style="stop-color:#536dfe;stop-opacity:1;" />
    </linearGradient>
    <linearGradient
       gradientTransform="matrix(0.00634403,0,0,0.00634403,-2363.0635,2243.3806)"
       osb:paint="solid"
       id="linearGradient17014">
      <stop
         id="stop17016"
         offset="0"
         style="stop-color:#8c9eff;stop-opacity:1;" />
    </linearGradient>
    <clipPath
       id="clipPath83799-06-6"
       clipPathUnits="userSpaceOnUse">
      <circle
         r="16.425676"
         cy="2526.7087"
         cx="1629.7842"
         id="circle83801-32-7"
         style="opacity:1;fill:#ffffff;fill-opacity:1;stroke:#cccccc;stroke-width:0.49900001;stroke-linecap:round;stroke-linejoin:round;stroke-miterlimit:4;stroke-dasharray:none;stroke-opacity:1" />
    </clipPath>
    <clipPath
       id="clipPath83799-06-8"
       clipPathUnits="userSpaceOnUse">
      <circle
         r="16.425676"
         cy="2526.7087"
         cx="1629.7842"
         id="circle83801-32-4"
         style="opacity:1;fill:#ffffff;fill-opacity:1;stroke:#cccccc;stroke-width:0.49900001;stroke-linecap:round;stroke-linejoin:round;stroke-miterlimit:4;stroke-dasharray:none;stroke-opacity:1" />
    </clipPath>
    <linearGradient
       osb:paint="solid"
       id="linearGradient19224">
      <stop
         id="stop19226"
         offset="0"
         style="stop-color:#7e57c2;stop-opacity:1;" />
    </linearGradient>
    <clipPath
       id="clipPath83799-06-9"
       clipPathUnits="userSpaceOnUse">
      <circle
         r="16.425676"
         cy="2526.7087"
         cx="1629.7842"
         id="circle83801-32-1"
         style="opacity:1;fill:#ffffff;fill-opacity:1;stroke:#cccccc;stroke-width:0.49900001;stroke-linecap:round;stroke-linejoin:round;stroke-miterlimit:4;stroke-dasharray:none;stroke-opacity:1" />
    </clipPath>
    <clipPath
       id="clipPath83799-06-85"
       clipPathUnits="userSpaceOnUse">
      <circle
         r="16.425676"
         cy="2526.7087"
         cx="1629.7842"
         id="circle83801-32-5"
         style="opacity:1;fill:#ffffff;fill-opacity:1;stroke:#cccccc;stroke-width:0.49900001;stroke-linecap:round;stroke-linejoin:round;stroke-miterlimit:4;stroke-dasharray:none;stroke-opacity:1" />
    </clipPath>
    <linearGradient
       osb:paint="solid"
       id="linearGradient6475">
      <stop
         id="stop6473"
         offset="0"
         style="stop-color:#000000;stop-opacity:1;" />
    </linearGradient>
    <clipPath
       clipPathUnits="userSpaceOnUse"
       id="clipPath847-3">
      <rect
         style="fill:#ff0000;fill-opacity:0.52314812;stroke:none;stroke-width:0.815732;stroke-linecap:round;stroke-linejoin:round;stroke-miterlimit:4;stroke-dasharray:none;stroke-opacity:1"
         id="rect849-1"
         width="101.58684"
         height="101.69591"
         x="68.720795"
         y="248.86708" />
    </clipPath>
    <clipPath
       clipPathUnits="userSpaceOnUse"
       id="clipPath83799-06-1">
      <circle
         style="opacity:1;fill:#ffffff;fill-opacity:1;stroke:#cccccc;stroke-width:0.49900001;stroke-linecap:round;stroke-linejoin:round;stroke-miterlimit:4;stroke-dasharray:none;stroke-opacity:1"
         id="circle83801-32-49"
         cx="1629.7842"
         cy="2526.7087"
         r="16.425676" />
    </clipPath>
    <clipPath
       clipPathUnits="userSpaceOnUse"
       id="clipPath83799-06-6-1">
      <circle
         style="opacity:1;fill:#ffffff;fill-opacity:1;stroke:#cccccc;stroke-width:0.49900001;stroke-linecap:round;stroke-linejoin:round;stroke-miterlimit:4;stroke-dasharray:none;stroke-opacity:1"
         id="circle83801-32-7-1"
         cx="1629.7842"
         cy="2526.7087"
         r="16.425676" />
    </clipPath>
    <clipPath
       clipPathUnits="userSpaceOnUse"
       id="clipPath83799-06-8-1">
      <circle
         style="opacity:1;fill:#ffffff;fill-opacity:1;stroke:#cccccc;stroke-width:0.49900001;stroke-linecap:round;stroke-linejoin:round;stroke-miterlimit:4;stroke-dasharray:none;stroke-opacity:1"
         id="circle83801-32-4-2"
         cx="1629.7842"
         cy="2526.7087"
         r="16.425676" />
    </clipPath>
    <clipPath
       clipPathUnits="userSpaceOnUse"
       id="clipPath83799-06-9-4">
      <circle
         style="opacity:1;fill:#ffffff;fill-opacity:1;stroke:#cccccc;stroke-width:0.49900001;stroke-linecap:round;stroke-linejoin:round;stroke-miterlimit:4;stroke-dasharray:none;stroke-opacity:1"
         id="circle83801-32-1-0"
         cx="1629.7842"
         cy="2526.7087"
         r="16.425676" />
    </clipPath>
    <clipPath
       clipPathUnits="userSpaceOnUse"
       id="clipPath83799-06-85-7">
      <circle
         style="opacity:1;fill:#ffffff;fill-opacity:1;stroke:#cccccc;stroke-width:0.49900001;stroke-linecap:round;stroke-linejoin:round;stroke-miterlimit:4;stroke-dasharray:none;stroke-opacity:1"
         id="circle83801-32-5-8"
         cx="1629.7842"
         cy="2526.7087"
         r="16.425676" />
    </clipPath>
    <clipPath
       id="clipPath847-7"
       clipPathUnits="userSpaceOnUse">
      <rect
         y="248.86708"
         x="68.720795"
         height="101.69591"
         width="101.58684"
         id="rect849-7"
         style="fill:#ff0000;fill-opacity:0.52314812;stroke:none;stroke-width:0.815732;stroke-linecap:round;stroke-linejoin:round;stroke-miterlimit:4;stroke-dasharray:none;stroke-opacity:1" />
    </clipPath>
  </defs>
  <sodipodi:namedview
     id="base"
     pagecolor="#ffffff"
     bordercolor="#666666"
     borderopacity="1.0"
     inkscape:pageopacity="0.0"
     inkscape:pageshadow="2"
     inkscape:zoom="4.000000004"
     inkscape:cx="50.15620756"
     inkscape:cy="6.499068536"
     inkscape:document-units="px"
     inkscape:current-layer="layer1"
     showgrid="false"
     units="px"
     inkscape:showpageshadow="false"
     showborder="true"
     inkscape:measure-start="0,0"
     inkscape:measure-end="0,0"
     inkscape:window-width="1920"
     inkscape:window-height="1017"
     inkscape:window-x="-8"
     inkscape:window-y="-8"
     inkscape:window-maximized="1"
     showguides="false"
     inkscape:guide-bbox="true">
    <inkscape:grid
       type="axonomgrid"
       id="grid4747"
       units="px"
       empspacing="5"
       spacingy="1.3229167"
       enabled="false" />
    <inkscape:grid
       type="xygrid"
       id="grid4749"
       empspacing="4" />
  </sodipodi:namedview>
  <metadata
     id="metadata5">
    <rdf:RDF>
      <cc:Work
         rdf:about="">
        <dc:format>image/svg+xml</dc:format>
        <dc:type
           rdf:resource="http://purl.org/dc/dcmitype/StillImage" />
        <dc:title>UIO-icon</dc:title>
        <dc:creator>
          <cc:Agent>
            <dc:title>Joaquín Urbano</dc:title>
          </cc:Agent>
        </dc:creator>
        <dc:rights>
          <cc:Agent>
            <dc:title>GPL</dc:title>
          </cc:Agent>
        </dc:rights>
      </cc:Work>
    </rdf:RDF>
  </metadata>
  <g
     inkscape:label="Capa 1"
     inkscape:groupmode="layer"
     id="layer1"
     transform="translate(0,-284.3)">
    <path
       style="fill:#333333;fill-opacity:1;stroke:none;stroke-width:2.935656786;stroke-linecap:round;stroke-linejoin:round;stroke-miterlimit:4;stroke-dasharray:none;stroke-opacity:1"
       d="M 14.566406,4 C 8.6848712,3.9998488 3.9178013,8.7668871 3.9179688,14.648438 c 0.0075966,2.938127 1.2214418,5.677461 3.1113281,8.43164 0.6106664,0.836011 0.8306177,1.109047 1.5429687,1.962891 l 7.6933594,0.08789 4.820313,-9.335937 4.429687,17.517578 c 3.632416,-5.102702 3.844357,-5.672633 6.107422,-9.082031 l 3.47525426,-0.00391 c 0.50131898,0.007884 0.51100705,-0.50301355 0.001531,-0.5139618 l -3.75562219,0.008705 -5.60109817,8.38081116 c -1.034921,-4.451792 -4.59467372,-17.57086417 -4.59467372,-17.57086417 -0.416602,0.540737 -2.10257472,4.33872332 -5.20332395,10.08571018 L 8.826067614,24.53282006 C 6.224828205,21.58885206 4.77061314,18.07872087 4.457399337,15.38919187 4.452711038,3.837364475 18.54673861,0.6170975598 24.03314563,10.86763108 29.8757712,0.2934870624 43.13915297,4.424757998 43.56054702,15.2851565 43.00000102,23.67968751 30.79752404,31.68727891 23.95082004,43.03088791 21.07087504,38.34996991 14.63947478,31.43478679 10.58083878,26.74633579 L 9.9042969,26.75 C 14.156781,31.756555 19.804456,37.09981 23.941406,44 31.455299,31.550992 44.088738,24.001897 44.09375,14.648438 44.09392,8.7668871 39.324897,3.9998488 33.443359,4 29.475475,4.0037795 25.839496,6.2126234 24.007812,9.7324219 22.175448,6.2113006 18.535776,4.0022677 14.566406,4 Z"
       transform="matrix(0.26458333,0,0,0.26458333,0,284.3)"
       id="path827"
       inkscape:connector-curvature="0"
       sodipodi:nodetypes="cccccccccccccccccccccccccc" />
  </g>
</svg>

<svg width="48" height="48" viewBox="0 0 48 48" fill="none" xmlns="http://www.w3.org/2000/svg">
<path d="M14.5658 4C8.68481 3.9998 3.91797 8.76684 3.91797 14.6479C3.92557 17.5859 5.13935 20.3253 7.02923 23.0794C7.63989 23.9154 7.85984 24.1883 8.57221 25.0422L16.2655 25.1301L21.0858 15.7943L25.5154 33.3121C29.1478 28.2095 29.3598 27.6396 31.6227 24.2302L35.098 24.2263C35.5993 24.2342 35.609 23.7233 35.0995 23.7124L31.344 23.7211L25.7429 32.1018C24.708 27.65 21.1483 14.531 21.1483 14.531C20.7317 15.0717 19.0457 18.8696 15.9451 24.6169L8.82624 24.5329C6.22497 21.5889 4.77079 18.0789 4.45759 15.389C4.45289 3.83713 18.5474 0.617167 24.0333 10.868C29.8763 0.293172 43.1391 4.42492 43.5611 15.285C43.0001 23.6799 30.7983 31.6868 23.9514 43.0306C21.0714 38.3497 14.6395 31.4348 10.5815 26.7458L9.90482 26.7498C14.1575 31.7568 19.8044 37.0997 23.9417 43.9996C31.4556 31.5508 44.0894 24.0019 44.0944 14.648C44.0944 8.76696 39.3255 4.00012 33.4435 4.00012C29.4756 4.00392 25.8396 6.2127 24.0086 9.73245C22.1757 6.2114 18.5367 4.00242 14.5668 4.00012L14.5658 4Z" fill="#333333"/>
</svg>
